X: 319
T: ONE WIFE IS ENOUGH FOR ME
T: Is mo shaith aon cheile amhain
B: O'Neill's 319
M: 3/4
L: 1/4
Z: 1999 by John Chambers <jc@trillian.mit.edu>
N: "Moderate"
N: "Collected by J.O'Neill"
K:Am
c/B/ \
| A>BA | AGE | c3 | dcd \
| e>dc | cde | G3- | Gc>B |
| A>BA | AGE | c3 | dcd \
| efe | dcB | A3- | A2 ||
|| e \
| ece | gec | BG2- | Gde \
| fed | cde | G3- | GcB |
| A>BA | AGE | c3 | dcd \
| efe | dcB | A3- | A2 ||


